X: 257
T:Reg's Cigar
% Nottingham Music Database
S:Ralph Page, via Phil Rowe
M:6/8
K:G
D|"G"GFG BAG|dBd g3|"D"d2e "G"dcB|"A7"ABG "D"FED|
"G"GFG BAG|"G"dBd "Em"g3|"Am"d2e dcB|"D7"AGF "G"G2::
B/2d/2|"G"g3 "D"f3|"C"efg "G"dBG|"G"G2A Bdc|"Am"BAG "D7"A2d|
"Em"g3 "Bm"f3|"C"efg "G"dBG|"C"cde "G"dcB|"D7"AGF "G"G2:|


